svgs/sharp-regular/arrows-maximize.svg

<svg xmlns="http://www.w3.org/2000/svg" viewBox="0 0 512 512"><!--! Font Awesome Pro 6.6.0 by @fontawesome - https://fontawesome.com License - https://fontawesome.com/license (Commercial License) Copyright 2024 Fonticons, Inc. --><path d="M328 32l-24 0 0 48 24 0 70.1 0L256 222.1 113.9 80 184 80l24 0 0-48-24 0L56 32 32 32l0 24 0 128 0 24 48 0 0-24 0-70.1L222.1 256 80 398.1 80 328l0-24-48 0 0 24 0 128 0 24 24 0 128 0 24 0 0-48-24 0-70.1 0L256 289.9 398.1 432 328 432l-24 0 0 48 24 0 128 0 24 0 0-24 0-128 0-24-48 0 0 24 0 70.1L289.9 256 432 113.9l0 70.1 0 24 48 0 0-24 0-128 0-24-24 0L328 32z"/></svg>

<svg xmlns="http://www.w3.org/2000/svg" viewBox="0 0 512 512"><!--! Font Awesome Pro 6.4.0 by @fontawesome - https://fontawesome.com License - https://fontawesome.com/license (Commercial License) Copyright 2023 Fonticons, Inc. --><path d="M328 32H304V80h24 70.1L256 222.1 113.9 80H184h24V32H184 56 32V56 184v24H80V184 113.9L222.1 256 80 398.1V328 304H32v24V456v24H56 184h24V432H184 113.9L256 289.9 398.1 432H328 304v48h24H456h24V456 328 304H432v24 70.1L289.9 256 432 113.9V184v24h48V184 56 32H456 328z"/></svg>
